src/images/quiz/icon-wine.svg

<?xml version="1.0" encoding="UTF-8"?>
<svg width="64px" height="64px" viewBox="0 0 64 64" version="1.1" xmlns="http://www.w3.org/2000/svg" xmlns:xlink="http://www.w3.org/1999/xlink">
    <title>C050493A-B331-460D-8887-FE5755D014E9</title>
    <g id="Site" stroke="none" stroke-width="1" fill="none" fill-rule="evenodd">
        <g id="icons" transform="translate(-120.000000, -1553.000000)">
            <g id="icon-wine" transform="translate(120.000000, 1553.000000)">
                <rect id="Rectangle" x="0" y="0" width="64" height="64"></rect>
                <path d="M19.1139822,23.2124184 L23.4226024,21.1227993 L31.6716794,20.2457542 L38.6210495,21.1227993 L44.572628,23.2124184 L44.572628,28.9790542 L42.2142951,34.8143436 L37.2864112,38.6085534 L31.8433051,40.2457542 L23.9308576,37.366888 L19.1139822,30.6178272 C18.7530794,27.9784079 18.572628,26.6586983 18.572628,26.6586983 C18.572628,26.6586983 18.7530794,25.5099384 19.1139822,23.2124184 Z" id="Path-33" fill="#9EBABA"></path>
                <path d="M32.6831886,54.643287 L32.6831886,40.889844 C36.5568048,40.6109016 40.1714783,38.8235645 42.7230124,35.8551955 C45.5061215,32.6205154 46.734521,28.3437484 46.0955849,24.124875 L43.2177406,5.13678707 C43.1945831,4.98310556 43.1272159,4.84310802 43.0366911,4.71679444 C41.6535575,2.03578885 32.0695151,2 31.6305755,2 C31.193741,2 21.6907498,2.03578885 20.2434068,4.68311082 C20.1391981,4.82100314 20.0665678,4.98415817 20.0402525,5.16099718 L17.3571417,22.859634 C17.304511,23.0185786 17.2708274,23.1827863 17.2708274,23.3564674 C17.2708274,23.3680462 17.2760905,23.3785723 17.2771431,23.3912037 L17.1655661,24.1259276 C16.5266299,28.344801 17.7550294,32.6205154 20.5381385,35.8562481 C23.0896727,38.8235645 26.7043461,40.6119542 30.5779624,40.8908967 L30.5779624,54.6443396 C27.2096004,54.7190751 18.9992181,55.2180137 18.9992181,58.3158541 C18.9992181,61.8221084 29.5211388,62 31.6305755,62 C33.7400121,62 44.2619328,61.8221084 44.2619328,58.3158541 C44.2619328,55.2169611 36.0515505,54.7180225 32.6831886,54.643287 L32.6831886,54.643287 L32.6831886,54.643287 L32.6831886,54.643287 L32.6831886,54.643287 Z M40.5862078,5.33467834 C40.5767343,5.33783618 40.5672608,5.34099402 40.5567347,5.34415186 C40.4167371,5.38941422 40.2577925,5.4357292 40.0746379,5.48204417 C40.0599013,5.48625463 40.0420068,5.48941247 40.0262176,5.49362292 C39.8367473,5.54099051 39.6262247,5.5883581 39.3904393,5.63467308 C39.3820184,5.63572569 39.3757027,5.63783092 39.3672818,5.63993614 C39.1336017,5.68625112 38.8715011,5.73046087 38.5925586,5.77361801 C38.5494015,5.77993369 38.5072969,5.78730198 38.4641398,5.79361766 C38.1830921,5.83572218 37.8799395,5.87677409 37.5536294,5.91466816 C37.5094197,5.91993123 37.4609995,5.92519429 37.4157371,5.92940475 C37.0810062,5.96729882 36.7273282,6.00203505 36.3452296,6.03361345 C36.330493,6.03466606 36.316809,6.03677128 36.3020725,6.0378239 C35.9189213,6.06940229 35.5052443,6.09571762 35.073673,6.11992772 C34.9957796,6.12413817 34.9189388,6.12834863 34.8389402,6.13255908 C34.4094741,6.15466395 33.9568504,6.17150576 33.4800167,6.18518973 C33.3958077,6.18729496 33.3073882,6.18940019 33.2210739,6.1904528 C32.714767,6.20203154 32.1905656,6.21045245 31.6305755,6.21045245 C31.0737431,6.21045245 30.551647,6.20203154 30.0474453,6.19150541 C29.955868,6.18940019 29.8621854,6.18729496 29.7716607,6.18518973 C29.2958796,6.17255838 28.8443086,6.15466395 28.415895,6.13361169 C28.3358964,6.12940124 28.2590557,6.12519079 28.1811623,6.12098033 C27.7569592,6.09782285 27.3495979,6.07150752 26.9727624,6.03992912 C26.9632889,6.03887651 26.9527628,6.03887651 26.9443419,6.0378239 C26.5569803,6.0062455 26.201197,5.96940405 25.8633082,5.93150997 C25.8033093,5.92519429 25.7422577,5.917826 25.6833114,5.91151032 C25.363317,5.87361625 25.0643749,5.83466957 24.7885902,5.79256504 C24.7433279,5.78624936 24.702276,5.77888107 24.6580662,5.77256539 C24.3854394,5.73046087 24.1286018,5.68625112 23.9001848,5.64098875 C23.8949217,5.63993614 23.8896586,5.63888353 23.8843956,5.63783092 C23.6496629,5.59151594 23.4422981,5.54414835 23.2528277,5.49783337 C23.2244072,5.49046508 23.194934,5.4841494 23.167566,5.47678111 C22.9896744,5.43151875 22.8307299,5.38625638 22.6938901,5.34204663 C22.6875745,5.3399414 22.6823114,5.33783618 22.6759957,5.33573095 C23.9970252,4.77679339 27.2138108,4.10522622 31.6305755,4.10522622 C36.0462875,4.10522622 39.2641258,4.77679339 40.5862078,5.33467834 L40.5862078,5.33467834 L40.5862078,5.33467834 L40.5862078,5.33467834 L40.5862078,5.33467834 Z M21.8496944,7.26727601 C21.8612732,7.27148647 21.8770624,7.27569692 21.8896937,7.27990737 C22.0717958,7.34727461 22.2696871,7.41253662 22.4896832,7.47674602 C22.4959989,7.47885125 22.5044198,7.48095647 22.5107355,7.4830617 C22.7338894,7.5472711 22.9780957,7.60832266 23.2444068,7.667269 C23.2612486,7.67042683 23.2759852,7.67463729 23.292827,7.67884774 C23.5528224,7.73568885 23.8380806,7.78937212 24.1422858,7.84095016 C24.1812325,7.84726584 24.2180739,7.85463413 24.2580732,7.86094981 C24.5570154,7.90937001 24.8812202,7.95463237 25.2243721,7.99778951 C25.2801606,8.0051578 25.3348964,8.01147348 25.3906849,8.01778916 C25.7380473,8.05884107 26.1075145,8.09568253 26.5011918,8.12936615 C26.5664538,8.13462922 26.6327684,8.13989228 26.699083,8.14515535 C27.1032865,8.17778635 27.5306474,8.20620691 27.9853763,8.2293644 C28.0506383,8.23252224 28.1190581,8.23568008 28.1864254,8.23883792 C28.6611539,8.2619954 29.1579873,8.28094244 29.6895569,8.2935738 C29.7411349,8.29462641 29.7958708,8.29567902 29.8485015,8.29673164 C30.4105969,8.30831038 31.0000602,8.31567867 31.6305755,8.31567867 C32.2610907,8.31567867 32.8505541,8.30831038 33.4137021,8.29567902 C33.4652801,8.29462641 33.5210686,8.2935738 33.5726467,8.29252118 C34.1042163,8.27988983 34.6021023,8.26094279 35.0768308,8.2377853 C35.1431454,8.23462746 35.2115653,8.23146962 35.2768273,8.22831178 C35.7315562,8.20410168 36.1589171,8.17568113 36.5631205,8.14410274 C36.6294351,8.13883967 36.6957498,8.1335766 36.7610118,8.12831354 C37.1546891,8.09462992 37.5252089,8.05778846 37.8725712,8.01673655 C37.9294123,8.01042087 37.9830956,8.00305258 38.0388841,7.9967369 C38.382036,7.95463237 38.7062408,7.90937001 39.0051829,7.85989719 C39.0441296,7.85358152 39.0809711,7.84726584 39.1199178,7.83989755 C39.4241229,7.7883195 39.7093811,7.73463623 39.9704292,7.67779513 C39.987271,7.67463729 40.0009549,7.67042683 40.0177967,7.667269 C40.2841079,7.60832266 40.5293667,7.54621849 40.7525207,7.4830617 C40.7588364,7.48095647 40.7662047,7.47990386 40.7725203,7.47779864 C40.9935691,7.41464185 41.1904078,7.34832722 41.3735624,7.28095998 C41.3851412,7.27674953 41.4009304,7.27253908 41.4125091,7.26832863 L43.4861569,20.9544043 C40.1777939,19.6186383 34.3610539,19.2639077 31.5979445,19.2639077 C28.8548347,19.2639077 23.1012514,19.6123226 19.7813097,20.9238785 L21.8496944,7.26727601 L21.8496944,7.26727601 L21.8496944,7.26727601 L21.8496944,7.26727601 L21.8496944,7.26727601 Z M43.6156284,23.319626 C42.5851201,23.8796161 38.9430788,24.7364432 31.5968918,24.7364432 C24.2507049,24.7364432 20.6086636,23.8806688 19.5781553,23.319626 C20.7233984,22.5364818 25.1591101,21.3680813 31.5968918,21.3680813 C38.0357263,21.3680813 42.4703853,22.5364818 43.6156284,23.319626 L43.6156284,23.319626 L43.6156284,23.319626 L43.6156284,23.319626 L43.6156284,23.319626 Z M29.5253492,31.9994737 C30.1066914,31.9994737 30.5779624,31.5282028 30.5779624,30.9468606 C30.5779624,30.3655184 30.1066914,29.8942475 29.5253492,29.8942475 C28.9440071,29.8942475 28.4727361,30.3655184 28.4727361,30.9468606 C28.4727361,31.5282028 28.9440071,31.9994737 29.5253492,31.9994737 L29.5253492,31.9994737 L29.5253492,31.9994737 L29.5253492,31.9994737 L29.5253492,31.9994737 Z M21.4665433,29.1711023 C22.0478854,29.1711023 22.5191564,28.6998313 22.5191564,28.1184891 C22.5191564,27.537147 22.0478854,27.065876 21.4665433,27.065876 C20.8852011,27.065876 20.4139301,27.537147 20.4139301,28.1184891 C20.4139301,28.6998313 20.8852011,29.1711023 21.4665433,29.1711023 L21.4665433,29.1711023 L21.4665433,29.1711023 L21.4665433,29.1711023 L21.4665433,29.1711023 Z M31.6305755,37.2625393 C32.2119176,37.2625393 32.6831886,36.7912683 32.6831886,36.2099261 C32.6831886,35.628584 32.2119176,35.157313 31.6305755,35.157313 C31.0492333,35.157313 30.5779624,35.628584 30.5779624,36.2099261 C30.5779624,36.7912683 31.0492333,37.2625393 31.6305755,37.2625393 L31.6305755,37.2625393 L31.6305755,37.2625393 L31.6305755,37.2625393 L31.6305755,37.2625393 Z M39.8535891,31.5394818 C40.4349313,31.5394818 40.9062022,31.0682108 40.9062022,30.4868687 C40.9062022,29.9055265 40.4349313,29.4342555 39.8535891,29.4342555 C39.2722469,29.4342555 38.800976,29.9055265 38.800976,30.4868687 C38.800976,31.0682108 39.2722469,31.5394818 39.8535891,31.5394818 L39.8535891,31.5394818 L39.8535891,31.5394818 L39.8535891,31.5394818 L39.8535891,31.5394818 Z M24.098076,33.644708 C24.6794182,33.644708 25.1506891,33.173437 25.1506891,32.5920949 C25.1506891,32.0107527 24.6794182,31.5394818 24.098076,31.5394818 C23.5167339,31.5394818 23.0454629,32.0107527 23.0454629,32.5920949 C23.0454629,33.173437 23.5167339,33.644708 24.098076,33.644708 L24.098076,33.644708 L24.098076,33.644708 L24.098076,33.644708 L24.098076,33.644708 Z M33.7358017,30.9468606 C34.3171439,30.9468606 34.7884148,30.4755896 34.7884148,29.8942475 C34.7884148,29.3129053 34.3171439,28.8416344 33.7358017,28.8416344 C33.1544595,28.8416344 32.6831886,29.3129053 32.6831886,29.8942475 C32.6831886,30.4755896 33.1544595,30.9468606 33.7358017,30.9468606 L33.7358017,30.9468606 L33.7358017,30.9468606 L33.7358017,30.9468606 L33.7358017,30.9468606 Z M22.1339,34.482588 C19.9592013,31.9531587 18.9086934,28.6826898 19.1560575,25.3838003 C21.8633784,26.5437799 27.0317088,26.8416694 31.5968918,26.8416694 C36.199969,26.8416694 41.4135617,26.5374643 44.1019356,25.3543271 C44.3577206,28.6637427 43.3082653,31.946843 41.127251,34.4836406 C38.7451875,37.2530657 35.2841956,38.8414589 31.6305755,38.8414589 C27.9769554,38.8414589 24.5159634,37.2530657 22.1339,34.482588 L22.1339,34.482588 L22.1339,34.482588 L22.1339,34.482588 L22.1339,34.482588 Z M31.6305755,59.8937212 C25.7475208,59.8937212 22.2075829,58.9390011 21.2697046,58.3148015 C22.1507418,57.728496 25.3254229,56.8516693 30.5779624,56.746408 L30.5779624,57.9369134 C30.5779624,58.5190084 31.049533,58.9895265 31.6305755,58.9895265 C32.2116179,58.9895265 32.6831886,58.5190084 32.6831886,57.9369134 L32.6831886,56.746408 C37.9367806,56.8516693 41.1104092,57.728496 41.9914463,58.3148015 C41.053568,58.9390011 37.5136302,59.8937212 31.6305755,59.8937212 L31.6305755,59.8937212 L31.6305755,59.8937212 L31.6305755,59.8937212 L31.6305755,59.8937212 Z" id="glass-4" fill="#2F484D"></path>
            </g>
        </g>
    </g>
</svg>

<svg width="64" height="64" viewBox="0 0 64 64" xmlns="http://www.w3.org/2000/svg">
    <g fill="none" fill-rule="evenodd">
        <path d="M0 0h64v64H0z"/>
        <path d="m19.114 23.212 4.309-2.09 8.249-.876 6.949.877 5.952 2.09v5.766l-2.359 5.835-4.928 3.795-5.443 1.637-7.912-2.88-4.817-6.748-.541-3.96.541-3.446z" fill="#D9845F"/>
        <path d="M32.683 54.643V40.89a14.593 14.593 0 0 0 10.04-5.035 14.614 14.614 0 0 0 3.373-11.73L43.218 5.137a.973.973 0 0 0-.181-.42C41.654 2.036 32.07 2 31.63 2c-.437 0-9.94.036-11.388 2.683a1.05 1.05 0 0 0-.203.478L17.357 22.86a1.569 1.569 0 0 0-.086.496c0 .012.005.023.006.035l-.111.735A14.598 14.598 0 0 0 30.578 40.89v13.753c-3.368.075-11.579.574-11.579 3.672C19 61.822 29.521 62 31.631 62c2.109 0 12.63-.178 12.63-3.684 0-3.099-8.21-3.598-11.578-3.673zm7.903-49.308a7.692 7.692 0 0 1-.512.147l-.048.012c-.19.047-.4.094-.636.14l-.023.006c-.233.046-.495.09-.774.134l-.129.02a27.703 27.703 0 0 1-1.048.135c-.335.038-.689.073-1.07.105-.016 0-.03.003-.044.004a47.71 47.71 0 0 1-1.228.082l-.235.013a60.12 60.12 0 0 1-1.618.057 68.789 68.789 0 0 1-3.174.002l-.275-.007c-.476-.012-.928-.03-1.356-.051l-.235-.013c-.424-.023-.831-.05-1.208-.081l-.029-.002a35.309 35.309 0 0 1-1.08-.106l-.18-.02c-.32-.038-.62-.077-.895-.12-.046-.006-.087-.013-.13-.02-.274-.042-.53-.086-.759-.131l-.016-.003a14.205 14.205 0 0 1-.631-.14l-.085-.021a7.884 7.884 0 0 1-.474-.135l-.018-.006c1.321-.56 4.538-1.23 8.955-1.23 4.415 0 7.633.67 8.955 1.229zM21.85 7.267l.04.013c.182.067.38.133.6.197l.02.006c.224.064.468.125.734.184.017.003.032.008.049.012.26.057.545.11.85.162l.115.02a27.797 27.797 0 0 0 1.133.157c.347.04.717.078 1.11.111l.198.016c.404.033.832.061 1.286.084l.201.01c.475.023.972.042 1.504.055l.159.003a85.967 85.967 0 0 0 3.565-.001l.159-.003c.531-.013 1.03-.032 1.504-.055l.2-.01a51.95 51.95 0 0 0 1.286-.084l.198-.016c.394-.033.764-.07 1.112-.111l.166-.02a23.505 23.505 0 0 0 1.08-.157c.305-.052.59-.105.851-.162.017-.003.031-.008.048-.01a13.1 13.1 0 0 0 .735-.185l.02-.005a8.43 8.43 0 0 0 .6-.197c.012-.004.028-.008.04-.013l2.073 13.686c-3.308-1.335-9.125-1.69-11.888-1.69-2.743 0-8.497.348-11.817 1.66L21.85 7.267zM43.616 23.32c-1.03.56-4.673 1.416-12.02 1.416-7.345 0-10.987-.855-12.018-1.416 1.145-.784 5.581-1.952 12.019-1.952 6.439 0 10.873 1.168 12.019 1.952zM22.134 34.483a12.499 12.499 0 0 1-2.978-9.1c2.707 1.16 7.876 1.459 12.44 1.459 4.604 0 9.818-.305 12.506-1.488a12.501 12.501 0 0 1-2.975 9.13 12.514 12.514 0 0 1-9.496 4.357 12.511 12.511 0 0 1-9.497-4.358zm9.497 25.41c-5.883 0-9.423-.954-10.361-1.578.88-.587 4.055-1.463 9.308-1.569v1.19a1.052 1.052 0 1 0 2.105 0v-1.19c5.254.106 8.427.982 9.308 1.569-.937.624-4.477 1.579-10.36 1.579z" fill="#2F484D"/>
    </g>
</svg>
